svg/汽车.svg

<svg width="36" height="36" viewBox="0 0 36 36" fill="none" xmlns="http://www.w3.org/2000/svg"><rect x="-48" y="-9.5" width="132" height="87" rx="11.5" stroke="#FF8D28"/><g opacity="0.8"><path d="M0 12C0 5.37258 5.37258 0 12 0H24C30.6274 0 36 5.37258 36 12V24C36 30.6274 30.6274 36 24 36H12C5.37258 36 0 30.6274 0 24V12Z" fill="#B3B3B3"/><path d="M39.9198 17.3539H36.7706C36.6218 17.3539 36.4854 17.3911 36.3615 17.4655L34.948 13.1978C34.4893 10.7663 32.7783 9.6001 30.6829 9.6001H17.3545C14.9368 9.6001 13.4738 11.1757 13.0894 13.1978L11.6636 17.4779C11.5272 17.4035 11.3784 17.3539 11.2296 17.3539H8.08042C7.96883 17.3539 7.85725 17.3787 7.74566 17.4159C7.63407 17.4655 7.54728 17.5275 7.46049 17.602C7.37371 17.6888 7.31171 17.7757 7.27452 17.8873C7.22492 17.999 7.21252 18.1106 7.21252 18.2223V18.979C7.21252 19.4629 7.60928 19.8599 8.09282 19.8599L9.28308 20.0584C8.88633 20.8524 8.67555 21.7208 8.68795 22.614L8.2416 27.6508C8.2416 27.7997 8.2416 27.9486 8.2664 28.0975C8.254 28.1967 8.2416 28.2836 8.2416 28.3828V34.4369C8.2416 35.3054 8.93592 36.0001 9.80382 36.0001H12.1843C12.3951 36.0001 12.5935 35.9629 12.7795 35.8884C12.9654 35.814 13.139 35.6899 13.2878 35.5535C13.4366 35.417 13.5482 35.2309 13.6226 35.0448C13.697 34.8587 13.7465 34.6478 13.7465 34.4493V32.5016H34.2785V34.4493C34.2785 35.3178 34.9728 36.0125 35.8407 36.0125H38.2336C38.4444 36.0125 38.6428 35.9753 38.8288 35.8884C39.0147 35.814 39.1883 35.6899 39.3371 35.5535C39.4859 35.417 39.5975 35.2309 39.6719 35.0448C39.7463 34.8587 39.7958 34.6478 39.7958 34.4493V28.3952C39.7958 28.296 39.7958 28.2091 39.771 28.1099C39.7834 27.961 39.7958 27.8121 39.7958 27.6633L39.3495 22.6264C39.3495 21.6463 39.1387 20.8027 38.7544 20.0708L39.9198 19.8723C40.0314 19.8723 40.143 19.8475 40.2546 19.8102C40.3662 19.7606 40.453 19.6986 40.5398 19.6242C40.6265 19.5373 40.6885 19.4505 40.7257 19.3388C40.7753 19.2272 40.7877 19.1155 40.7877 19.0039V18.2471C40.7877 18.0114 40.6885 17.7881 40.5274 17.6268C40.3662 17.4655 40.143 17.3663 39.9074 17.3663L39.9198 17.3539Z" fill="#020202"/><path d="M13.7983 18.5454L14.8651 15.7347V15.6717C14.9794 15.1045 15.2207 15.0036 15.5762 14.5625H32.2758C32.6314 15.0162 32.8473 15.1297 32.9489 15.6717L34.0283 18.558L34.422 20.1209C34.3331 21.2679 32.9362 22.1754 31.7805 22.1754H16.0461C14.8905 22.1754 13.4936 21.2679 13.4047 20.1209L13.7983 18.558V18.5454Z" fill="#EDEDED"/><path d="M14.5472 31.9182C14.217 31.9182 13.8995 31.8425 13.6075 31.7165C13.3154 31.5905 13.0487 31.4014 12.8201 31.1619C12.5915 30.9224 12.4264 30.6578 12.3121 30.3553C12.1978 30.0528 12.147 29.7377 12.1597 29.41C12.1724 29.0823 12.2486 28.7672 12.3883 28.4773C12.528 28.1874 12.7185 27.9227 12.9598 27.7084C13.2011 27.4941 13.4805 27.3303 13.798 27.2295C14.1027 27.1286 14.4329 27.0908 14.7504 27.1034C15.3727 27.1538 15.9695 27.4311 16.3886 27.8975C16.8077 28.3638 17.0236 28.9814 16.9982 29.599C16.9728 30.2292 16.6934 30.809 16.2362 31.2376C15.779 31.6661 15.1695 31.9056 14.5345 31.893L14.5472 31.9182Z" fill="#FF8A00"/><path d="M28.0976 30.1536C28.0976 30.3427 28.0214 30.5192 27.8817 30.6578C27.742 30.7964 27.5642 30.8721 27.3737 30.8721H20.5669C20.3764 30.8721 20.1986 30.7964 20.0589 30.6578C19.9192 30.5192 19.843 30.3427 19.843 30.1536V28.1496C19.843 27.7589 20.1732 27.4312 20.5669 27.4312H27.3737C27.7674 27.4312 28.0976 27.7463 28.0976 28.1496V30.1536Z" fill="#919191"/><path d="M33.2912 31.9182C32.9737 31.9182 32.6562 31.8552 32.3641 31.7418C32.072 31.6157 31.8053 31.4393 31.5768 31.225C31.3482 30.9981 31.1704 30.7334 31.0561 30.4435C30.9291 30.1536 30.8656 29.8385 30.8656 29.5234C30.8656 29.2083 30.9291 28.8932 31.0561 28.6033C31.1831 28.3134 31.3609 28.0488 31.5768 27.8219C31.8053 27.595 32.072 27.4186 32.3641 27.3051C32.6562 27.1791 32.9737 27.1287 33.2912 27.1287C33.6086 27.1287 33.9261 27.1917 34.2182 27.3051C34.5103 27.4312 34.777 27.6076 35.0056 27.8219C35.2342 28.0362 35.4119 28.3134 35.5262 28.6033C35.6532 28.8932 35.7167 29.2083 35.7167 29.5234C35.7167 30.1662 35.4627 30.7712 35.0056 31.225C34.5484 31.6787 33.9388 31.9308 33.2912 31.9308V31.9182Z" fill="#FF8A00"/></g><defs><clipPath id="clip0_1970_14250"></clipPath></defs></svg>

<svg fill="none" viewBox="0 0 36 36"><rect width="132" height="87" x="-48" y="-9.5" stroke="#FF8D28" rx="11.5"/><g opacity=".8"><path fill="#B3B3B3" d="M0 12C0 5.373 5.373 0 12 0h12c6.627 0 12 5.373 12 12v12c0 6.627-5.373 12-12 12H12C5.373 36 0 30.627 0 24z"/><path fill="#020202" d="M39.92 17.354h-3.15a.8.8 0 0 0-.409.111l-1.413-4.267c-.459-2.432-2.17-3.598-4.265-3.598H17.355c-2.418 0-3.881 1.576-4.266 3.598l-1.425 4.28a.9.9 0 0 0-.434-.124H8.08c-.111 0-.223.025-.334.062a1.1 1.1 0 0 0-.286.186.7.7 0 0 0-.185.285.8.8 0 0 0-.062.335v.757c0 .484.396.88.88.88l1.19.2a5.5 5.5 0 0 0-.595 2.555l-.446 5.037c0 .149 0 .298.024.447-.012.099-.024.186-.024.285v6.054c0 .868.694 1.563 1.562 1.563h2.38q.317 0 .596-.112c.185-.074.359-.198.508-.334a1.4 1.4 0 0 0 .335-.51 1.7 1.7 0 0 0 .123-.595v-1.947H34.28v1.947c0 .869.694 1.564 1.562 1.564h2.393c.21 0 .409-.038.595-.125.186-.074.36-.198.508-.334a1.4 1.4 0 0 0 .335-.51 1.7 1.7 0 0 0 .124-.595v-6.054c0-.099 0-.186-.025-.285.012-.149.025-.298.025-.447l-.447-5.037c0-.98-.21-1.823-.595-2.555l1.166-.199c.111 0 .223-.024.335-.062.111-.05.198-.111.285-.186a.7.7 0 0 0 .186-.285.8.8 0 0 0 .062-.335v-.757c0-.236-.1-.459-.26-.62a.88.88 0 0 0-.62-.26z"/><path fill="#EDEDED" d="m13.798 18.545 1.067-2.81v-.063c.114-.568.356-.668.711-1.11h16.7c.355.454.571.568.673 1.11l1.08 2.886.393 1.563c-.089 1.147-1.486 2.054-2.641 2.054H16.046c-1.155 0-2.552-.907-2.641-2.054l.393-1.563z"/><path fill="#FF8A00" d="M14.547 31.918a2.414 2.414 0 0 1-1.727-.756 2.386 2.386 0 0 1-.66-1.752c.012-.328.089-.643.228-.933.14-.29.33-.554.572-.769s.52-.378.838-.478c.305-.101.635-.14.952-.127.623.05 1.22.328 1.639.794.419.467.635 1.084.61 1.702a2.37 2.37 0 0 1-.763 1.639 2.42 2.42 0 0 1-1.702.655z"/><path fill="#919191" d="M28.098 30.154c0 .189-.077.365-.216.504a.72.72 0 0 1-.508.214h-6.807a.72.72 0 0 1-.508-.214.7.7 0 0 1-.216-.504V28.15c0-.391.33-.719.724-.719h6.807a.72.72 0 0 1 .724.719z"/><path fill="#FF8A00" d="M33.291 31.918c-.317 0-.635-.063-.927-.176a2.7 2.7 0 0 1-.787-.517 2.3 2.3 0 0 1-.52-.782 2.3 2.3 0 0 1-.191-.92c0-.315.063-.63.19-.92s.305-.554.52-.781c.23-.227.496-.403.788-.517.292-.126.61-.176.927-.176s.635.063.927.176c.292.126.559.303.788.517s.406.491.52.781c.127.29.19.605.19.92a2.421 2.421 0 0 1-2.425 2.407z"/></g></svg>
